X:1
T:In the bleak midwinter
T:In the bleak midwinter
T:Tenor
L:1/8
M:2/2
K:F
V:1 bass nm="Piano" snm="Pno."
V:1
 z2 | C3 C C2 F,2 | A,4 A,2 z2 | G,3 D, D,2 F,2 | F,4 E,2 z2 | F,3 C C2 F,2 | A,4 A,2 z2 | %7
w: |In the bleak mid-|win- ter|Frost- y wind made|moan _|Earth stood hard as|ir- on,|
w: |God, heav'n can- not|hold him,|Nor _ earth sus-|tain _|Heav'n and earth shall|fleea- way.|
w: |nough for him, whom|Cheru- bim|Wor- ship night and|day _|breast _ ful of|milk And|
w: |An- gels and Arch-|an- gels|May have gath- er'd|there _|Cher- u- bim and|Sera- phim|
w: |What _ can I|give him,|Poor _ as I|am _|If I were a|shep- herd|
 D2 D2 B,3 A, | A,6 z2 | B,3 C B,2 A,2 | B,2 B,2 A,2 z2 | F,2 C2 B,2 A,2 | G,6 z2 | F,3 C C2 F,2 | %14
w: Wa- ter like a|stone;|Snow had fal- len,|snow on snow,|Snow _ on _|snow,|In the bleak mid-|
w: When he comes to|reign:|In the bleak mid-|win _ ter.|sta- ble place suf-|fie'd.|Lord _ God al-|
w: man- ger- ful of|hay;|nough for him, whom|An _ gels|Fall _ down be-|fore,|ox and ass and|
w: Throng'd _ _ the|air,|on _ ly his|moth _ er.|In her maid- en|bliss|Wor- shipp'd the Bel-|
w: I would bring a|lamb;|If I were a|wise _ man|I would do my|part|what I can I|
 A,4 A,2 z2 | (D4 B,3) A, | A,8 |] %17
w: wint- ter,|Long _ a-|go.|
w: might- y|Je _ sus|Christ.|
w: cam- el|Which _ a-|dore.|
w: o- ved|With _ a|kiss.|
w: give him|Give _ my|heart.|

